X:3272
L:1/8
M:3/4
K:G
 D,2 | G,4 B,G, | B,4 A,2 | G,4 E,2 | D,4 D,2 | G,4 B,G, | B,4 A,2 | !fermata!D4 B,2 | 
 (D3 B,) DB, | G,4 D,2 | (E,3 G,) G,E, | D,4 D,2 | G,4 B,G, | B,4 A,2 | G,4 |]

